X:1
T:Op. 35 No. 17
T:Op. 35 No. 17
T:Fernando Sor (1778-1839)
T:Twenty-Four Exercises for the Guitar
T:This work is Public Domain, it is free to record, repost (score, video etc.), and distribute as you see fit. Attribution is appreciated, but not required. Please visit my website at http://www.paulyguitar.blogspot.com • Please consider supporting my work at http://www.patreon.com/paulbrookshorniii
T:This work is Public Domain, it is free to record, repost (score, video etc.), and distribute as you see fit. Attribution is appreciated, but not required. Please visit my website at http://www.paulyguitar.blogspot.com • Please consider supporting my work at http://www.patreon.com/paulbrookshorniii
C:Fernando Sor (1778-1839)
Z:This work is Public Domain, it is free to record, repost (score, video etc.), and distribute as you see fit. Attribution is appreciated, but not required.
Z:Please visit my website at http://www.paulyguitar.blogspot.com • Please consider supporting my work at http://www.patreon.com/paulbrookshorniii
%%score ( 1 2 3 )
L:1/8
Q:1/4=120
M:4/4
K:D
V:1 treble-8 nm="Classical Guitar" snm="Guit."
V:2 treble-8 
V:3 treble-8 
V:1
"^Moderato" !1!A2 | !2!f3 f e3 e | !2!d3 !1!f A3 A | B3 B e3 !2!d | !3!d3 !2!c e3 !1!A | %5
 !2!f3 f e3 e | !2!d3 d !4!^d3 d | e3 B !2!c3 e | !2!!3![Fd]2 z4 z f | e3 e !4!^d3 d | %10
 e3 e !2!c3 c | !2!d3 d B3 e | !3!d4 !4!c2 z e | e3 e !1!^e3 e | !1!f3 f !0!B3 !2!^B | %15
 !4!c3 !3!c !2!d3 B | !1!c2 !1!E!4!C A,2 z a | a3 a !1!=c3 c | B3 !4!B f3 f | !4!g3 g _B3 B | %20
 A3 A !0!e3 e | =f3 d !2!c3 e | d3 e =f3 e | !4!d3 d !0!e3 e | !1!c6 z A | f3 f e3 e | %26
 !2!d3 !1!f A3 d | B3 B e3 d | d3 c e3 A | !2!f3 (!4!g/!2!f/) e3 (!3!f/e/) | %30
 ^d4 !0!e3 (!1!f/!0!e/) | !2!d3 d !2!c3 A | !3!!2![Fd]4 x4 |] %33
V:2
 z2 | z D A2 z A, G2 | z !4!D F2 z D F2 | z !2!G, G2 z !3!^G, !1!E2 | z A, !1!E2 z A, E2 | %5
 z D !1!A2 z A, G2 | z !1!B, !3!F2 z A, F2 | z !2!G, !1![EG]2 z A, [EG]2 | z !4!D!1!AF D2 x2 | %9
 z !3!C A2 z !2!^B, A2 | z !3!C A2 z C A2 | z !1!B, F2 z !2!E !1!^G2 | z E^GE !3!A!2!E A,2 | %13
 z !4!C !2!A2 z C A2 | z D !2!A2 z !3!^D A2 | z !2!E A2 x !1!E B!1!^G | x !1!A x4 x2 | %17
 z !2!F A2 z !2!E !3!A2 | z !3!^D A2 z D A2 | z !2!E G2 z !3!D G2 | z !3!C !4!G2 z C G2 | %21
 z !4!D =F2 z !1!E G2 | z =F A2 z D A2 | z _B, A2 z !1!B, !2!^G2 | z A,!1!A!1!E !4!CE A,2 | %25
 z D A2 z A, G2 | z !4!D F2 z !1!D F2 | z G, G2 z ^A, E2 | z A, E2 z A, E2 | z D !1!A2 z ^A, G2 | %30
 z B,!3!F!1!A !0!GE, !3![E,B]2 | z A, !3!!1![EA] z A,2 !1![EG]2 | z DAE D2 z2 |] %33
V:3
 x2 | x8 | x8 | x8 | x8 | x8 | x8 | x8 | x8 | x8 | x8 | x8 | x8 | x8 | x8 | x4 E,4 | A,2 x6 | x8 | %18
 x8 | x8 | x8 | x8 | x8 | x8 | x8 | x8 | x8 | x8 | x8 | x8 | x8 | x8 | x8 |] %33

